http_data/img/icon_battery_full_charge.svg

<?xml version="1.0" encoding="UTF-8" standalone="no"?>
<svg
   xmlns:dc="http://purl.org/dc/elements/1.1/"
   xmlns:cc="http://creativecommons.org/ns#"
   xmlns:rdf="http://www.w3.org/1999/02/22-rdf-syntax-ns#"
   xmlns:svg="http://www.w3.org/2000/svg"
   xmlns="http://www.w3.org/2000/svg"
   xmlns:sodipodi="http://sodipodi.sourceforge.net/DTD/sodipodi-0.dtd"
   xmlns:inkscape="http://www.inkscape.org/namespaces/inkscape"
   version="1.1"
   x="0px"
   y="0px"
   viewBox="0 0 100 37.695999"
   enable-background="new 0 0 100 100"
   xml:space="preserve"
   id="svg7960"
   inkscape:version="0.91 r13725"
   sodipodi:docname="icon_battery_full_charge.svg"
   width="100"
   height="37.695999"><metadata
     id="metadata7976"><rdf:RDF><cc:Work
         rdf:about=""><dc:format>image/svg+xml</dc:format><dc:type
           rdf:resource="http://purl.org/dc/dcmitype/StillImage" /></cc:Work></rdf:RDF></metadata><defs
     id="defs7974" /><sodipodi:namedview
     pagecolor="#ffffff"
     bordercolor="#666666"
     borderopacity="1"
     objecttolerance="10"
     gridtolerance="10"
     guidetolerance="10"
     inkscape:pageopacity="0"
     inkscape:pageshadow="2"
     inkscape:window-width="2556"
     inkscape:window-height="1371"
     id="namedview7972"
     showgrid="false"
     fit-margin-top="0"
     fit-margin-left="0"
     fit-margin-right="0"
     fit-margin-bottom="0"
     inkscape:zoom="1.888"
     inkscape:cx="-89.830508"
     inkscape:cy="6.348"
     inkscape:window-x="0"
     inkscape:window-y="30"
     inkscape:window-maximized="0"
     inkscape:current-layer="svg7960" /><g
     id="g7962"
     transform="translate(0,-31.152)"><path
       d="M 99.933,43.74 C 99.746,42.989 99.158,42.4 98.408,42.214 l -0.068,-0.067 -3.575,0 0,-7.33 c 0,-2.021 -1.644,-3.665 -3.664,-3.665 l -87.436,0 C 1.645,31.152 0,32.796 0,34.816 l 0,30.367 c 0,2.021 1.645,3.665 3.665,3.665 l 87.435,0 c 2.021,0 3.664,-1.645 3.664,-3.665 l 0,-7.33 3.575,0 0.068,-0.067 c 0.75,-0.186 1.339,-0.774 1.525,-1.525 L 100,56.192 100,43.807 99.933,43.74 Z M 92.67,65.183 c 0,0.866 -0.704,1.57 -1.57,1.57 l -87.435,0 c -0.866,0 -1.571,-0.704 -1.571,-1.57 l 0,-30.367 c 0,-0.866 0.705,-1.57 1.571,-1.57 l 87.435,0 c 0.866,0 1.57,0.705 1.57,1.57 l 0,7.33 0,15.707 0,7.33 z"
       id="path7964"
       inkscape:connector-curvature="0" /><path
       d="m 89.162,35.34 -6.963,0 -6.23,0 -57.278,0 -7.381,0 -5.812,0 c -0.869,0 -1.571,0.703 -1.571,1.57 l 0,26.179 c 0,0.869 0.702,1.57 1.571,1.57 l 5.812,0 7.382,0 57.277,0 6.23,0 6.963,0 c 0.869,0 1.571,-0.701 1.571,-1.57 l 0,-26.178 c 0,-0.869 -0.702,-1.571 -1.571,-1.571 z m -24.755,14.667 -11.366,0 0,6.252 c 0,0.429 -0.347,0.777 -0.775,0.777 -0.053,0 -0.109,-0.006 -0.156,-0.016 L 38.551,53.631 30.212,51.545 c -0.005,0 -0.005,0 -0.009,0 -0.047,-0.01 -0.088,-0.022 -0.13,-0.037 -0.29,-0.115 -0.492,-0.395 -0.492,-0.724 0,-0.43 0.347,-0.777 0.777,-0.777 l 11.298,0 0,-6.266 c 0,-0.43 0.346,-0.777 0.775,-0.777 0.017,0 0.037,0 0.051,0.006 l 0.266,0.067 13.4,3.348 8.295,2.074 0.289,0.074 c 0.265,0.118 0.451,0.388 0.451,0.699 10e-4,0.43 -0.347,0.775 -0.776,0.775 z"
       id="path7966"
       inkscape:connector-curvature="0" /></g></svg>

<svg xmlns="http://www.w3.org/2000/svg" xmlns:xlink="http://www.w3.org/1999/xlink" version="1.1" x="0px" y="0px" viewBox="0 0 100 125" enable-background="new 0 0 100 100" xml:space="preserve"><g><path d="M99.933,43.74c-0.187-0.751-0.775-1.34-1.525-1.526l-0.068-0.067h-3.575v-7.33c0-2.021-1.644-3.665-3.664-3.665H3.665   C1.645,31.152,0,32.796,0,34.816v30.367c0,2.021,1.645,3.665,3.665,3.665H91.1c2.021,0,3.664-1.645,3.664-3.665v-7.33h3.575   l0.068-0.067c0.75-0.186,1.339-0.774,1.525-1.525L100,56.192V43.807L99.933,43.74z M92.67,65.183c0,0.866-0.704,1.57-1.57,1.57   H3.665c-0.866,0-1.571-0.704-1.571-1.57V34.816c0-0.866,0.705-1.57,1.571-1.57H91.1c0.866,0,1.57,0.705,1.57,1.57v7.33v15.707   V65.183z"/><path d="M89.162,35.34h-6.963h-6.23H18.691H11.31H5.498c-0.869,0-1.571,0.703-1.571,1.57v26.179c0,0.869,0.702,1.57,1.571,1.57   h5.812h7.382h57.277h6.23h6.963c0.869,0,1.571-0.701,1.571-1.57V36.911C90.733,36.042,90.031,35.34,89.162,35.34z M64.407,50.007   H53.041v6.252c0,0.429-0.347,0.777-0.775,0.777c-0.053,0-0.109-0.006-0.156-0.016l-13.559-3.389l-8.339-2.086   c-0.005,0-0.005,0-0.009,0c-0.047-0.01-0.088-0.022-0.13-0.037c-0.29-0.115-0.492-0.395-0.492-0.724   c0-0.43,0.347-0.777,0.777-0.777h11.298v-6.266c0-0.43,0.346-0.777,0.775-0.777c0.017,0,0.037,0,0.051,0.006l0.266,0.067   l13.4,3.348l8.295,2.074l0.289,0.074c0.265,0.118,0.451,0.388,0.451,0.699C65.184,49.662,64.836,50.007,64.407,50.007z"/></g><text x="0" y="115" fill="#000000" font-size="5px" font-weight="bold" font-family="'Helvetica Neue', Helvetica, Arial-Unicode, Arial, Sans-serif">Created by Igor Filipe</text><text x="0" y="120" fill="#000000" font-size="5px" font-weight="bold" font-family="'Helvetica Neue', Helvetica, Arial-Unicode, Arial, Sans-serif">from the Noun Project</text></svg>
